img/vk.svg

<svg width="27" height="15" viewBox="0 0 27 15" fill="none" xmlns="http://www.w3.org/2000/svg">
<path d="M26.7852 13.4705L26.6932 13.3017C25.9568 12.1851 25.0533 11.181 24.0123 10.3226C23.6176 9.9675 23.2419 9.59296 22.8868 9.20048C22.7231 9.05323 22.6134 8.85804 22.5746 8.64469C22.5358 8.43134 22.57 8.21152 22.6719 8.01877C23.0199 7.38381 23.4385 6.78774 23.9202 6.24123L24.8309 5.07938C26.4476 2.994 27.1297 1.66994 26.8773 1.10722L26.7852 0.978128C26.6739 0.867803 26.5316 0.791806 26.376 0.75966C26.079 0.699976 25.7725 0.699976 25.4755 0.75966H21.4952C21.4056 0.730149 21.3085 0.730149 21.2189 0.75966H20.912C20.8515 0.795206 20.7992 0.842544 20.7585 0.898685C20.696 0.970665 20.6443 1.05091 20.605 1.13701C20.1842 2.19038 19.6849 3.2126 19.1111 4.19557C18.7632 4.75167 18.446 5.18861 18.1493 5.65534C17.9257 5.96934 17.6759 6.26494 17.4023 6.53914C17.2315 6.70835 17.0504 6.86752 16.86 7.0158C16.7066 7.13496 16.5838 7.18462 16.5019 7.16476L16.2666 7.1151C16.1331 7.03045 16.0239 6.91427 15.9494 6.77747C15.8582 6.61478 15.8025 6.43564 15.7857 6.25116V1.61367C15.8061 1.40893 15.8061 1.20274 15.7857 0.997989C15.7535 0.847961 15.7055 0.701545 15.6424 0.561052C15.5844 0.422894 15.4845 0.305132 15.3559 0.223419C15.1953 0.139995 15.0229 0.0797784 14.8443 0.0446722C14.2182 -0.0148907 13.5877 -0.0148907 12.9616 0.0446722C11.8363 -0.0569479 10.7013 0.0474765 9.61568 0.352514C9.41282 0.453501 9.23211 0.591779 9.0836 0.75966C8.90966 0.958267 8.88919 1.0675 9.01198 1.08736C9.24707 1.09824 9.47735 1.15586 9.68856 1.25664C9.89977 1.35742 10.0874 1.49922 10.2398 1.67325L10.3217 1.83214C10.4142 2.0359 10.4828 2.24908 10.5263 2.46769C10.5874 2.79606 10.6284 3.12765 10.6491 3.46072C10.69 4.02606 10.69 4.59348 10.6491 5.15882C10.6491 5.63548 10.557 6.0029 10.5161 6.26109C10.4665 6.50044 10.3729 6.72917 10.2398 6.93636C10.1955 7.04382 10.1407 7.14691 10.0761 7.2442L10.0045 7.31371C9.88305 7.35674 9.75516 7.38022 9.62591 7.38322C9.47205 7.34127 9.33138 7.26278 9.21662 7.15483C9.00308 7.00048 8.80751 6.824 8.63339 6.62852C8.38531 6.33712 8.15959 6.02845 7.95807 5.70499C7.66977 5.24549 7.40678 4.77147 7.17019 4.28495L6.93485 3.89766L6.35162 2.78546C6.11379 2.32023 5.90202 1.84287 5.71722 1.35548C5.6538 1.17952 5.53586 1.0269 5.37956 0.918546H5.30794C5.25443 0.857553 5.19244 0.804079 5.12376 0.75966C5.00502 0.71593 4.88138 0.685932 4.7554 0.670286L0.91834 0.700077C0.77256 0.688365 0.625887 0.707123 0.48821 0.755088C0.350534 0.803052 0.225054 0.879109 0.120232 0.978128H0.0076781C-0.00255937 1.05061 -0.00255937 1.12411 0.0076781 1.1966C0.0191868 1.32189 0.046683 1.44531 0.0895354 1.56402C0.655715 2.88807 1.26964 4.12937 1.93132 5.28791C2.58618 6.46963 3.15918 7.42295 3.64009 8.14786C4.12101 8.87278 4.66331 9.55798 5.15445 10.2035C5.6456 10.8489 6.03442 11.266 6.17767 11.4448L6.55626 11.8519L6.90415 12.1895C7.22683 12.4698 7.56868 12.7286 7.92737 12.9641C8.39965 13.2994 8.89163 13.6078 9.4008 13.8876C9.98161 14.1995 10.6003 14.4397 11.2426 14.6026C11.9109 14.8057 12.6094 14.8997 13.3095 14.8807H14.9262C15.2054 14.8784 15.4729 14.7717 15.6731 14.5828V14.5132C15.7177 14.4349 15.752 14.3515 15.7754 14.265C15.7856 14.1427 15.7856 14.0198 15.7754 13.8976C15.765 13.5444 15.7959 13.1913 15.8675 12.8449C15.9086 12.5997 15.9879 12.3619 16.1029 12.1399C16.1803 11.9906 16.2803 11.8533 16.3996 11.7327L16.6349 11.5341H16.7475C16.888 11.5053 17.0336 11.5092 17.1723 11.5455C17.311 11.5817 17.4389 11.6493 17.5456 11.7427C17.8627 11.971 18.1481 12.238 18.3949 12.5371C18.6609 12.8449 18.9883 13.2024 19.3567 13.5798C19.6657 13.9047 20.0086 14.1975 20.3799 14.4537L20.6664 14.6125C20.8944 14.7417 21.1385 14.8419 21.3929 14.9105C21.6417 14.9979 21.9095 15.0218 22.1705 14.98L25.803 14.8807C26.0866 14.8985 26.3699 14.8401 26.6215 14.7118C26.7017 14.6761 26.7738 14.6252 26.8335 14.5621C26.8933 14.499 26.9395 14.425 26.9694 14.3444C27.0102 14.1947 27.0102 14.0373 26.9694 13.8876C26.951 13.7615 26.9166 13.6381 26.8671 13.5202L26.7852 13.4705Z" fill="white"/>
</svg>

<svg width="27" height="15" fill="none" xmlns="http://www.w3.org/2000/svg"><path d="M26.785 13.47l-.092-.168a13.489 13.489 0 00-2.68-2.98c-.395-.354-.771-.729-1.126-1.122a.967.967 0 01-.215-1.182 9.844 9.844 0 011.248-1.777l.91-1.162c1.618-2.085 2.3-3.41 2.047-3.972l-.092-.129a.815.815 0 00-.409-.218 2.287 2.287 0 00-.9 0h-3.98a.442.442 0 00-.277 0h-.307a.506.506 0 00-.153.139.992.992 0 00-.154.238 22.97 22.97 0 01-1.494 3.059c-.348.556-.665.993-.962 1.46a7 7 0 01-.747.883c-.17.17-.352.329-.542.477-.153.119-.276.169-.358.149l-.235-.05a.924.924 0 01-.318-.338 1.321 1.321 0 01-.163-.526V1.614c.02-.205.02-.411 0-.616a2.186 2.186 0 00-.144-.437.74.74 0 00-.286-.338 1.909 1.909 0 00-.512-.178 9.94 9.94 0 00-1.882 0 9.287 9.287 0 00-3.346.308c-.203.1-.384.239-.532.407-.174.198-.195.307-.072.327.235.011.465.069.677.17.21.1.398.242.55.416l.083.16c.092.203.16.416.204.635.061.328.102.66.123.993.041.565.041 1.132 0 1.698 0 .476-.092.844-.133 1.102a2 2 0 01-.276.675c-.045.108-.1.21-.164.308l-.072.07c-.12.043-.249.066-.378.07a.97.97 0 01-.41-.23 3.623 3.623 0 01-.583-.525 7.732 7.732 0 01-.675-.924c-.288-.46-.551-.934-.788-1.42l-.235-.387-.583-1.113c-.238-.465-.45-.942-.635-1.43A.907.907 0 005.38.92h-.072a.882.882 0 00-.184-.16A1.657 1.657 0 004.755.67L.918.7A1.052 1.052 0 00.12.978H.008a.78.78 0 000 .219c.011.125.039.248.082.367A36.205 36.205 0 001.93 5.288a43.045 43.045 0 001.71 2.86c.48.725 1.022 1.41 1.513 2.056.492.645.88 1.062 1.024 1.24l.378.408.348.338c.323.28.665.539 1.023.774.473.335.965.644 1.474.924.58.312 1.2.552 1.842.715a6.504 6.504 0 002.066.278h1.617c.28-.003.547-.11.747-.298v-.07c.045-.078.079-.162.102-.248a2.21 2.21 0 000-.367 4.54 4.54 0 01.092-1.053c.042-.245.12-.483.236-.705.077-.15.177-.287.297-.407l.235-.199h.112a.937.937 0 01.799.209c.317.228.602.495.849.794.266.308.593.665.962 1.043.309.325.652.617 1.023.874l.286.159c.228.129.473.229.727.298.249.087.517.11.777.069l3.633-.1c.284.018.567-.04.819-.168a.663.663 0 00.347-.368.868.868 0 000-.456 1.514 1.514 0 00-.102-.368l-.082-.05z" fill="#fff"/></svg>
